brandFactory_export/3.Masa/Fibra_3Masa.svg

<?xml version="1.0" encoding="UTF-8"?>
<svg width="24px" height="24px" viewBox="0 0 24 24" version="1.1" xmlns="http://www.w3.org/2000/svg" xmlns:xlink="http://www.w3.org/1999/xlink">
    <title>3.Masa/Fibra_3Masa</title>
    <g id="Symbols" stroke="none" stroke-width="1" fill="none" fill-rule="evenodd">
        <g id="3.Masa/Fibra_3Masa" fill="#5CB615" fill-rule="nonzero">
            <path d="M11.8151261,-4.4408921e-13 C15.5630252,-4.4408921e-13 18.4840336,0.981512605 20.4907563,2.91428571 C22.5747899,4.92436975 23.6302521,7.91596639 23.6302521,11.8151261 C23.6302521,15.7142857 22.5747899,18.7092437 20.4907563,20.7159664 C18.4840336,22.6487395 15.5630252,23.6302521 11.8151261,23.6302521 C9.05210084,23.6302521 6.7394958,23.0957983 4.91092437,22.0403361 L4.91092437,22.0403361 L9.28739496,17.5428571 C9.54285714,17.2806723 9.5394958,16.8638655 9.28403361,16.6016807 L9.28403361,16.6016807 L9.01512605,16.3294118 C10.6285714,15.5159664 13.0084034,14.6689076 16.1747899,14.4403361 C16.2621849,14.6453782 16.3932773,14.8336134 16.5546218,14.9882353 C16.897479,15.3109244 17.3411765,15.4789916 17.8857143,15.4789916 C18.4302521,15.4789916 18.8739496,15.3210084 19.2168067,14.9882353 C19.5596639,14.6554622 19.7411765,14.2117647 19.7411765,13.7042017 C19.7411765,13.1966387 19.5563025,12.7495798 19.2168067,12.4235294 C18.8773109,12.097479 18.4302521,11.9294118 17.8857143,11.9294118 C17.3411765,11.9294118 16.8941176,12.0941176 16.5546218,12.4201681 C16.3596639,12.605042 16.2151261,12.8369748 16.1277311,13.092437 C13.6605042,13.2672269 11.6302521,13.7983193 10.0336134,14.410084 L10.0336134,14.410084 L15.7546218,8.76302521 C15.9831933,8.86386555 16.2319328,8.91092437 16.4806723,8.90420168 C16.9512605,8.8907563 17.3815126,8.69579832 17.7714286,8.31260504 C18.1613445,7.92941176 18.3630252,7.49915966 18.3764706,7.02857143 C18.389916,6.5512605 18.2016807,6.10756303 17.8420168,5.7512605 C17.4823529,5.39495798 17.0386555,5.21344538 16.5613445,5.22689076 C16.0907563,5.23697479 15.6605042,5.43529412 15.2705882,5.81848739 C14.8806723,6.20168067 14.6789916,6.63193277 14.6655462,7.10252101 C14.6554622,7.34789916 14.7058824,7.58991597 14.8033613,7.81512605 L14.8033613,7.81512605 L8.96806723,13.5764706 C9.61008403,11.9596639 10.1680672,9.87226891 10.3495798,7.31764706 C10.605042,7.23361345 10.8369748,7.08571429 11.0218487,6.8907563 C11.3478992,6.54789916 11.512605,6.10084034 11.512605,5.55966387 C11.512605,5.01848739 11.3512605,4.57142857 11.0218487,4.22857143 C10.692437,3.88571429 10.2487395,3.70420168 9.74117647,3.70420168 C9.23361345,3.70420168 8.78655462,3.88907563 8.4605042,4.22857143 C8.13445378,4.57142857 7.9697479,5.01512605 7.9697479,5.55966387 C7.9697479,6.10420168 8.13445378,6.5512605 8.4605042,6.8907563 C8.61512605,7.05210084 8.80336134,7.18319328 9.00840336,7.27058824 C8.77983193,10.4268908 7.9394958,12.8033613 7.12941176,14.4134454 L7.12941176,14.4134454 L6.89747899,14.1781513 C6.77310924,14.0470588 6.59831933,13.9764706 6.42016807,13.9764706 C6.23865546,13.9764706 6.06722689,14.0504202 5.9394958,14.1781513 L5.9394958,14.1781513 L1.55966387,18.6722689 C0.524369748,16.8537815 -2.00532924e-10,14.5579832 -2.00532924e-10,11.8151261 C-2.00532924e-10,7.91932773 1.05546218,4.92436975 3.1394958,2.91428571 C5.14621849,0.981512605 8.06722689,-4.4408921e-13 11.8151261,-4.4408921e-13 Z M17.8957983,13.2773109 C18.1714286,13.2773109 18.2655462,13.3647059 18.2957983,13.394958 C18.3495798,13.4487395 18.4067227,13.5260504 18.4067227,13.707563 C18.4067227,13.8890756 18.3495798,13.9663866 18.2957983,14.0201681 C18.2655462,14.0504202 18.1714286,14.1378151 17.8957983,14.1378151 C17.6201681,14.1378151 17.5260504,14.0504202 17.4957983,14.0201681 C17.4453782,13.9697479 17.3882353,13.8957983 17.3848739,13.7210084 L17.3848739,13.7210084 L17.3848739,13.7042017 C17.3848739,13.5260504 17.4420168,13.4487395 17.4957983,13.394958 C17.5260504,13.3647059 17.6201681,13.2773109 17.8957983,13.2773109 Z M16.6016807,6.57478992 C16.6789916,6.57142857 16.7798319,6.59159664 16.9008403,6.71260504 C17.0218487,6.83361345 17.0386555,6.92436975 17.0352941,6.99495798 C17.0319328,7.03529412 17.0319328,7.15630252 16.8302521,7.35798319 C16.6285714,7.55966387 16.4941176,7.56302521 16.4504202,7.56302521 C16.3731092,7.56638655 16.2789916,7.55294118 16.1546218,7.42857143 L16.1546218,7.42857143 C16.0302521,7.30420168 16.0134454,7.21344538 16.0168067,7.14285714 C16.0201681,7.10252101 16.0201681,6.98151261 16.2218487,6.77983193 C16.4235294,6.57815126 16.5579832,6.57478992 16.6016807,6.57478992 Z M9.74789916,5.0487395 C9.92941176,5.0487395 10.0067227,5.10588235 10.0605042,5.15966387 C10.0907563,5.18991597 10.1781513,5.28067227 10.1781513,5.55966387 C10.1781513,5.83865546 10.0907563,5.92941176 10.0605042,5.95966387 C10.0067227,6.01344538 9.92941176,6.07058824 9.7512605,6.07058824 L9.7512605,6.07058824 L9.73109244,6.07058824 C9.55966387,6.06722689 9.48571429,6.01344538 9.43529412,5.95966387 C9.40504202,5.92941176 9.31764706,5.83865546 9.31764706,5.55966387 C9.31764706,5.28067227 9.40504202,5.18991597 9.43529412,5.15966387 C9.48907563,5.10588235 9.56638655,5.0487395 9.74789916,5.0487395 Z" id="Fibra_3Masa"></path>
        </g>
    </g>
</svg>

<svg width="24" height="24" viewBox="0 0 24 24" xmlns="http://www.w3.org/2000/svg"><path d="M11.815 0c3.748 0 6.669.982 8.676 2.914 2.084 2.01 3.14 5.002 3.14 8.901 0 3.9-1.056 6.894-3.14 8.901-2.007 1.933-4.928 2.914-8.676 2.914-2.763 0-5.076-.534-6.904-1.59l4.376-4.497a.674.674 0 00-.003-.941l-.269-.273c1.614-.813 3.993-1.66 7.16-1.889.087.205.218.394.38.548.342.323.786.491 1.33.491.545 0 .989-.158 1.332-.49.343-.334.524-.777.524-1.285 0-.507-.185-.954-.524-1.28-.34-.327-.787-.495-1.331-.495-.545 0-.992.165-1.331.491-.195.185-.34.417-.427.672-2.467.175-4.498.706-6.094 1.318l5.72-5.647c.23.1.478.148.727.141.47-.013.9-.208 1.29-.591.39-.384.592-.814.605-1.284.014-.478-.174-.921-.534-1.278a1.723 1.723 0 00-1.28-.524c-.471.01-.901.208-1.291.591-.39.384-.592.814-.605 1.285-.01.245.04.487.137.712l-5.835 5.761c.642-1.616 1.2-3.704 1.382-6.258.255-.084.487-.232.672-.427.326-.343.49-.79.49-1.331 0-.542-.16-.989-.49-1.331-.33-.343-.773-.525-1.28-.525-.508 0-.955.185-1.281.525-.327.342-.491.786-.491 1.33 0 .545.164.992.49 1.332.155.161.343.292.548.38-.228 3.156-1.069 5.532-1.879 7.142l-.232-.235a.658.658 0 00-.477-.202.68.68 0 00-.48.202l-4.38 4.494C.524 16.854 0 14.558 0 11.815c0-3.896 1.055-6.89 3.14-8.9C5.145.981 8.066 0 11.814 0zm6.08 13.277c.276 0 .37.088.4.118.055.054.112.131.112.313 0 .181-.057.258-.111.312-.03.03-.125.118-.4.118-.276 0-.37-.088-.4-.118-.05-.05-.108-.124-.111-.299v-.017c0-.178.057-.255.11-.309.031-.03.125-.118.4-.118zm-1.293-6.702c.077-.004.178.017.299.138.12.12.138.211.134.282-.003.04-.003.161-.205.363-.201.202-.336.205-.38.205-.077.003-.171-.01-.295-.134-.125-.125-.142-.216-.138-.286.003-.04.003-.161.205-.363.202-.202.336-.205.38-.205zM9.748 5.049c.181 0 .259.057.313.11.03.03.117.122.117.4 0 .28-.087.37-.117.4-.054.054-.132.112-.31.112h-.02c-.171-.004-.245-.058-.296-.111-.03-.03-.117-.121-.117-.4 0-.28.087-.37.117-.4.054-.054.131-.111.313-.111z" fill="#5CB615" fill-rule="nonzero"/></svg>
